places/32/folder-drag-accept.svg

<?xml version="1.0" encoding="UTF-8" standalone="no"?>
<svg
   xmlns:dc="http://purl.org/dc/elements/1.1/"
   xmlns:cc="http://creativecommons.org/ns#"
   xmlns:rdf="http://www.w3.org/1999/02/22-rdf-syntax-ns#"
   xmlns:svg="http://www.w3.org/2000/svg"
   xmlns="http://www.w3.org/2000/svg"
   xmlns:xlink="http://www.w3.org/1999/xlink"
   version="1.1"
   width="32"
   height="32"
   id="svg17313">
  <defs
     id="defs17315">
    <linearGradient
       x1="27.557428"
       y1="7.162672"
       x2="27.557428"
       y2="21.386522"
       id="linearGradient8576"
       xlink:href="#linearGradient3454-2-5-0-3-4"
       gradientUnits="userSpaceOnUse"
       gradientTransform="matrix(0.89186139,0,0,0.86792712,3.12074,9.575029)" />
    <linearGradient
       id="linearGradient3454-2-5-0-3-4">
      <stop
         id="stop3456-4-9-38-1-8"
         style="stop-color:#ffffff;stop-opacity:1"
         offset="0" />
      <stop
         id="stop3458-39-80-3-5-5"
         style="stop-color:#ffffff;stop-opacity:0.23529412"
         offset="0.0097359" />
      <stop
         id="stop3460-7-0-2-4-2"
         style="stop-color:#ffffff;stop-opacity:0.15686275"
         offset="0.99001008" />
      <stop
         id="stop3462-0-9-8-7-2"
         style="stop-color:#ffffff;stop-opacity:0.39215687"
         offset="1" />
    </linearGradient>
    <linearGradient
       x1="22.934725"
       y1="49.629246"
       x2="22.809399"
       y2="36.657963"
       id="linearGradient8564"
       xlink:href="#linearGradient6129-963-697-142-998-580-273-5"
       gradientUnits="userSpaceOnUse"
       gradientTransform="matrix(0.7467531,0,0,0.5519934,-1.92198,5.720099)" />
    <linearGradient
       id="linearGradient6129-963-697-142-998-580-273-5">
      <stop
         id="stop2661-1"
         style="stop-color:#0a0a0a;stop-opacity:0.498"
         offset="0" />
      <stop
         id="stop2663-85"
         style="stop-color:#0a0a0a;stop-opacity:0"
         offset="1" />
    </linearGradient>
    <linearGradient
       x1="35.792694"
       y1="17.118193"
       x2="35.792694"
       y2="43.761127"
       id="linearGradient8568"
       xlink:href="#linearGradient4632-0-6-4-3-4"
       gradientUnits="userSpaceOnUse"
       gradientTransform="matrix(0.64444432,0,0,0.54135319,0.53343,5.488719)" />
    <linearGradient
       id="linearGradient4632-0-6-4-3-4">
      <stop
         id="stop4634-4-4-7-7-4"
         style="stop-color:#b4cee1;stop-opacity:1"
         offset="0" />
      <stop
         id="stop4636-3-1-5-1-3"
         style="stop-color:#5d9fcd;stop-opacity:1"
         offset="1" />
    </linearGradient>
    <linearGradient
       x1="302.85715"
       y1="366.64789"
       x2="302.85715"
       y2="609.50507"
       id="linearGradient16107"
       xlink:href="#linearGradient5048-585-0"
       gradientUnits="userSpaceOnUse"
       gradientTransform="matrix(0.05114282,0,0,0.01591575,-2.4899573,22.29927)" />
    <linearGradient
       id="linearGradient5048-585-0">
      <stop
         id="stop2667-18"
         style="stop-color:#000000;stop-opacity:0"
         offset="0" />
      <stop
         id="stop2669-9"
         style="stop-color:#000000;stop-opacity:1"
         offset="0.5" />
      <stop
         id="stop2671-33"
         style="stop-color:#000000;stop-opacity:0"
         offset="1" />
    </linearGradient>
    <radialGradient
       cx="605.71429"
       cy="486.64789"
       r="117.14286"
       fx="605.71429"
       fy="486.64789"
       id="radialGradient16109"
       xlink:href="#linearGradient5060-179-67"
       gradientUnits="userSpaceOnUse"
       gradientTransform="matrix(0.01983573,0,0,0.01591575,16.38765,22.29927)" />
    <linearGradient
       id="linearGradient5060-179-67">
      <stop
         id="stop2675-81"
         style="stop-color:#000000;stop-opacity:1"
         offset="0" />
      <stop
         id="stop2677-2"
         style="stop-color:#000000;stop-opacity:0"
         offset="1" />
    </linearGradient>
    <radialGradient
       cx="605.71429"
       cy="486.64789"
       r="117.14286"
       fx="605.71429"
       fy="486.64789"
       id="radialGradient16111"
       xlink:href="#linearGradient5060-820-4"
       gradientUnits="userSpaceOnUse"
       gradientTransform="matrix(-0.01983573,0,0,0.01591575,15.60139,22.29927)" />
    <linearGradient
       id="linearGradient5060-820-4">
      <stop
         id="stop2681-5"
         style="stop-color:#000000;stop-opacity:1"
         offset="0" />
      <stop
         id="stop2683-00"
         style="stop-color:#000000;stop-opacity:0"
         offset="1" />
    </linearGradient>
    <linearGradient
       x1="21.37039"
       y1="4.73244"
       x2="21.37039"
       y2="34.143417"
       id="linearGradient8584"
       xlink:href="#linearGradient4325"
       gradientUnits="userSpaceOnUse"
       gradientTransform="matrix(0.54383556,0,0,0.61466406,3.26879,5.091139)" />
    <linearGradient
       id="linearGradient4325">
      <stop
         id="stop4327"
         style="stop-color:#ffffff;stop-opacity:1"
         offset="0" />
      <stop
         id="stop4329"
         style="stop-color:#ffffff;stop-opacity:0.23529412"
         offset="0.1106325" />
      <stop
         id="stop4331"
         style="stop-color:#ffffff;stop-opacity:0.15686275"
         offset="0.99001008" />
      <stop
         id="stop4333"
         style="stop-color:#ffffff;stop-opacity:0.39215687"
         offset="1" />
    </linearGradient>
    <linearGradient
       x1="62.988873"
       y1="17.469706"
       x2="62.988873"
       y2="20.469706"
       id="linearGradient8580"
       xlink:href="#linearGradient4646-7-4-3-5"
       gradientUnits="userSpaceOnUse"
       gradientTransform="matrix(0.61904762,0,0,0.61904762,-30.3919,1.428569)" />
    <linearGradient
       id="linearGradient4646-7-4-3-5">
      <stop
         id="stop4648-8-0-3-6"
         style="stop-color:#f9f9f9;stop-opacity:1"
         offset="0" />
      <stop
         id="stop4650-1-7-3-4"
         style="stop-color:#d8d8d8;stop-opacity:1"
         offset="1" />
    </linearGradient>
    <linearGradient
       id="linearGradient3104-8-8-97-4-6-11-5-5-0">
      <stop
         id="stop3106-5-4-3-5-0-2-1-0-6"
         style="stop-color:#000000;stop-opacity:0.32173914"
         offset="0" />
      <stop
         id="stop3108-4-3-7-8-2-0-7-9-1"
         style="stop-color:#000000;stop-opacity:0.27826086"
         offset="1" />
    </linearGradient>
    <linearGradient
       x1="-51.786404"
       y1="53.514328"
       x2="-51.786404"
       y2="3.6336823"
       id="linearGradient17311"
       xlink:href="#linearGradient3104-8-8-97-4-6-11-5-5-0"
       gradientUnits="userSpaceOnUse"
       gradientTransform="matrix(0.50703384,0,0,0.50300255,68.02913,1.329769)" />
  </defs>
  <metadata
     id="metadata17318">
    <rdf:RDF>
      <cc:Work
         rdf:about="">
        <dc:format>image/svg+xml</dc:format>
        <dc:type
           rdf:resource="http://purl.org/dc/dcmitype/StillImage" />
        <dc:title />
      </cc:Work>
    </rdf:RDF>
  </metadata>
  <g
     id="layer1">
    <path
       d="m 4.00009,6.500079 c -0.43342,0.005 -0.5,0.21723 -0.5,0.6349 l 0,1.36502 c -1.24568,0 -1,-0.002 -1,0.54389 l 0,9.45611 27,-1.36005 0,-8.09606 c 0,-0.41767 -0.34799,-0.54876 -0.78141,-0.54389 l -14.21859,0 0,-1.36502 c 0,-0.41767 -0.26424,-0.63977 -0.69767,-0.6349 z"
       id="use8307"
       style="opacity:0.8;color:#000000;fill:none;stroke:url(#linearGradient17311);stroke-width:1;stroke-linecap:butt;stroke-linejoin:miter;stroke-miterlimit:4;stroke-opacity:1;stroke-dasharray:none;stroke-dashoffset:0;marker:none;visibility:visible;display:inline;overflow:visible;enable-background:accumulate" />
    <path
       d="m 4.00009,6.999999 0,2 -1,0 0,6 26,0 0,-6 -15,0 0,-2 z"
       id="use8309"
       style="color:#000000;fill:url(#linearGradient8580);fill-opacity:1;fill-rule:nonzero;stroke:none;stroke-width:1;marker:none;visibility:visible;display:inline;overflow:visible;enable-background:accumulate" />
    <path
       d="m 4.50009,7.499999 0,2 -1,0 0,6 25,0 0,-6 -15,0 0,-2 z"
       id="use8311"
       style="color:#000000;fill:none;stroke:url(#linearGradient8584);stroke-width:1;stroke-linecap:round;stroke-linejoin:miter;stroke-miterlimit:4;stroke-opacity:1;stroke-dasharray:none;stroke-dashoffset:0;marker:none;visibility:visible;display:inline;overflow:visible;enable-background:accumulate" />
    <g
       transform="translate(9e-5,-1.000001)"
       id="use8313">
      <rect
         width="24.694677"
         height="3.8652544"
         x="3.6471815"
         y="28.134747"
         id="rect16101"
         style="opacity:0.3;fill:url(#linearGradient16107);fill-opacity:1;fill-rule:nonzero;stroke:none;stroke-width:1;marker:none;visibility:visible;display:inline;overflow:visible" />
      <path
         d="m 28.341859,28.13488 c 0,0 0,3.865041 0,3.865041 1.021491,0.0073 2.469468,-0.86596 2.469468,-1.932769 0,-1.06681 -1.139908,-1.932272 -2.469468,-1.932272 z"
         id="path16103"
         style="opacity:0.3;fill:url(#radialGradient16109);fill-opacity:1;fill-rule:nonzero;stroke:none;stroke-width:1;marker:none;visibility:visible;display:inline;overflow:visible" />
      <path
         d="m 3.6471816,28.13488 c 0,0 0,3.865041 0,3.865041 -1.0214912,0.0073 -2.4694678,-0.86596 -2.4694678,-1.932769 0,-1.06681 1.1399068,-1.932272 2.4694678,-1.932272 z"
         id="path16105"
         style="opacity:0.3;fill:url(#radialGradient16111);fill-opacity:1;fill-rule:nonzero;stroke:none;stroke-width:1;marker:none;visibility:visible;display:inline;overflow:visible" />
    </g>
    <path
       d="m 0.92644,14.421049 c -0.69105,0.067 -0.32196,0.76007 -0.37705,1.14977 0.0802,0.25184 1.5982,13.2362 1.5982,13.68205 0,0.38752 0.22667,0.32187 0.80101,0.32187 8.4994,0 17.89808,0 26.39748,0 0.61872,0.012 0.48796,0.006 0.48796,-0.32797 0.0452,-0.17069 1.63945,-14.29767 1.66234,-14.52079 0,-0.23495 0.0581,-0.30493 -0.30493,-0.30493 -9.0765,0 -21.1885,0 -30.26501,0 z"
       id="use8315"
       style="color:#000000;fill:url(#linearGradient8568);fill-opacity:1;fill-rule:nonzero;stroke:none;stroke-width:0.9176628;marker:none;visibility:visible;display:inline;overflow:visible;enable-background:accumulate" />
    <path
       d="m 0.68182,13.999999 30.63618,2.3e-4 c 0.4137,0 0.68181,0.24597 0.68181,0.55177 l -1.67322,14.91546 c 0.01,0.38693 -0.1364,0.54035 -0.61707,0.53224 l -27.25613,-0.01 c -0.4137,0 -0.83086,-0.22836 -0.83086,-0.53417 L 0,14.551709 c 0,-0.3058 0.26812,-0.55199 0.68182,-0.55199 z"
       id="use8317"
       style="opacity:0.4;fill:url(#linearGradient8564);fill-opacity:1;stroke:none" />
    <path
       d="m 1.49991,15.411759 1.62516,13.17647 25.74917,0 1.62467,-13.17647 z"
       id="use8572"
       style="opacity:0.5;color:#000000;fill:none;stroke:url(#linearGradient8576);stroke-width:0.90748531;stroke-linecap:round;stroke-linejoin:miter;stroke-miterlimit:4;stroke-opacity:1;stroke-dasharray:none;stroke-dashoffset:0;marker:none;visibility:visible;display:inline;overflow:visible;enable-background:accumulate" />
    <path
       d="m 0.92644,14.42105 c -0.69105,0.067 -0.32196,0.76007 -0.37705,1.14977 0.0802,0.25184 1.5982,13.236199 1.5982,13.682049 0,0.38752 0.22667,0.32187 0.80101,0.32187 8.4994,0 17.89808,0 26.39748,0 0.61872,0.012 0.48796,0.006 0.48796,-0.32797 0.0452,-0.17069 1.63945,-14.297669 1.66234,-14.520789 0,-0.23495 0.0581,-0.30493 -0.30493,-0.30493 -9.0765,0 -21.1885,0 -30.26501,0 z"
       id="use8315-2"
       style="opacity:0.3;color:#000000;fill:none;stroke:#000000;stroke-width:0.9176628;stroke-linecap:round;stroke-linejoin:round;stroke-miterlimit:4;stroke-opacity:1;stroke-dasharray:none;stroke-dashoffset:0;marker:none;visibility:visible;display:inline;overflow:visible;enable-background:accumulate" />
  </g>
</svg>

<svg xmlns="http://www.w3.org/2000/svg" xmlns:xlink="http://www.w3.org/1999/xlink" viewBox="0 0 32 32"><defs><linearGradient x1="27.557" y1="7.163" x2="27.557" y2="21.387" id="r" xlink:href="#a" gradientUnits="userSpaceOnUse" gradientTransform="matrix(.89186 0 0 .86793 3.12 9.575)"/><linearGradient id="a"><stop offset="0" stop-color="#fff"/><stop offset=".01" stop-color="#fff" stop-opacity=".235"/><stop offset=".99" stop-color="#fff" stop-opacity=".157"/><stop offset="1" stop-color="#fff" stop-opacity=".392"/></linearGradient><linearGradient x1="22.935" y1="49.629" x2="22.809" y2="36.658" id="q" xlink:href="#b" gradientUnits="userSpaceOnUse" gradientTransform="matrix(.74675 0 0 .552 -1.922 5.72)"/><linearGradient id="b"><stop offset="0" stop-color="#0a0a0a" stop-opacity=".498"/><stop offset="1" stop-color="#0a0a0a" stop-opacity="0"/></linearGradient><linearGradient x1="35.793" y1="17.118" x2="35.793" y2="43.761" id="p" xlink:href="#c" gradientUnits="userSpaceOnUse" gradientTransform="matrix(.64444 0 0 .54135 .533 5.49)"/><linearGradient id="c"><stop offset="0" stop-color="#b4cee1"/><stop offset="1" stop-color="#5d9fcd"/></linearGradient><linearGradient x1="302.857" y1="366.648" x2="302.857" y2="609.505" id="m" xlink:href="#d" gradientUnits="userSpaceOnUse" gradientTransform="matrix(.05114 0 0 .01592 -2.49 22.3)"/><linearGradient id="d"><stop offset="0" stop-opacity="0"/><stop offset=".5"/><stop offset="1" stop-opacity="0"/></linearGradient><radialGradient cx="605.714" cy="486.648" r="117.143" fx="605.714" fy="486.648" id="n" xlink:href="#e" gradientUnits="userSpaceOnUse" gradientTransform="matrix(.01984 0 0 .01592 16.388 22.3)"/><linearGradient id="e"><stop offset="0"/><stop offset="1" stop-opacity="0"/></linearGradient><radialGradient cx="605.714" cy="486.648" r="117.143" fx="605.714" fy="486.648" id="o" xlink:href="#f" gradientUnits="userSpaceOnUse" gradientTransform="matrix(-.01984 0 0 .01592 15.6 22.3)"/><linearGradient id="f"><stop offset="0"/><stop offset="1" stop-opacity="0"/></linearGradient><linearGradient x1="21.37" y1="4.732" x2="21.37" y2="34.143" id="l" xlink:href="#g" gradientUnits="userSpaceOnUse" gradientTransform="matrix(.54384 0 0 .61466 3.27 5.09)"/><linearGradient id="g"><stop offset="0" stop-color="#fff"/><stop offset=".111" stop-color="#fff" stop-opacity=".235"/><stop offset=".99" stop-color="#fff" stop-opacity=".157"/><stop offset="1" stop-color="#fff" stop-opacity=".392"/></linearGradient><linearGradient x1="62.989" y1="17.47" x2="62.989" y2="20.47" id="k" xlink:href="#h" gradientUnits="userSpaceOnUse" gradientTransform="translate(-30.392 1.43) scale(.61905)"/><linearGradient id="h"><stop offset="0" stop-color="#f9f9f9"/><stop offset="1" stop-color="#d8d8d8"/></linearGradient><linearGradient id="i"><stop offset="0" stop-opacity=".322"/><stop offset="1" stop-opacity=".278"/></linearGradient><linearGradient x1="-51.786" y1="53.514" x2="-51.786" y2="3.634" id="j" xlink:href="#i" gradientUnits="userSpaceOnUse" gradientTransform="matrix(.50703 0 0 .503 68.03 1.33)"/></defs><path d="M4 6.5c-.433.005-.5.217-.5.635V8.5c-1.246 0-1-.002-1 .544V18.5l27-1.36V9.044c0-.418-.348-.55-.78-.544H14.5V7.135c0-.418-.264-.64-.698-.635z" opacity=".8" color="#000" fill="none" stroke="url(#j)" overflow="visible"/><path d="M4 7v2H3v6h26V9H14V7z" color="#000" fill="url(#k)" overflow="visible"/><path d="M4.5 7.5v2h-1v6h25v-6h-15v-2z" color="#000" fill="none" stroke="url(#l)" stroke-linecap="round" overflow="visible"/><path opacity=".3" fill="url(#m)" overflow="visible" d="M3.647 28.135h24.695V32H3.647z" transform="translate(0 -1)"/><path d="M28.342 28.135V32c1.02.007 2.47-.866 2.47-1.933 0-1.067-1.14-1.932-2.47-1.932z" opacity=".3" fill="url(#n)" overflow="visible" transform="translate(0 -1)"/><path d="M3.647 28.135V32c-1.02.007-2.47-.866-2.47-1.933 0-1.067 1.14-1.932 2.47-1.932z" opacity=".3" fill="url(#o)" overflow="visible" transform="translate(0 -1)"/><path d="M.926 14.42c-.69.068-.322.76-.377 1.15.08.253 1.596 13.237 1.596 13.683 0 .387.226.322.8.322h26.398c.62.012.488.006.488-.328.045-.17 1.64-14.298 1.662-14.52 0-.236.058-.306-.305-.306H.926z" color="#000" fill="url(#p)" overflow="visible"/><path d="M.682 14h30.636c.414 0 .682.246.682.552l-1.673 14.915c.01.387-.137.54-.617.533l-27.257-.01c-.413 0-.83-.23-.83-.534L0 14.552C0 14.246.268 14 .682 14z" opacity=".4" fill="url(#q)"/><path d="M1.5 15.412l1.625 13.176h25.75L30.5 15.412z" opacity=".5" color="#000" fill="none" stroke="url(#r)" stroke-width=".907" stroke-linecap="round" overflow="visible"/><path d="M.926 14.42c-.69.068-.322.76-.377 1.15.08.253 1.596 13.237 1.596 13.683 0 .387.226.322.8.322h26.398c.62.012.488.006.488-.328.045-.17 1.64-14.298 1.662-14.52 0-.236.058-.306-.305-.306H.926z" opacity=".3" color="#000" fill="none" stroke="#000" stroke-width=".918" stroke-linecap="round" stroke-linejoin="round" overflow="visible"/></svg>
